X: 10752
T: Dr. Gilbert's Wife
R: reel
M: 4/4
K: Edorian
edBe dBAd|BAGE EDB,E|DEB,E DEGA|Bcd gbag ed|
edBe dBAd|BAGD EDB,E|DEGA Bcd gb|aged Beef:|
gfe fdeB B2|gB B2 dBGA|Bcd ef gfga|bag ab agef|
gfe fdeB B2|gB B2 dBGA|Bcd ef gfga|gfed Beef:|

